packages/vibrant-icons/assets/icons/Person2/Thin.svg

<svg width="24" height="24" viewBox="0 0 24 24" fill="none" xmlns="http://www.w3.org/2000/svg">
<path fill-rule="evenodd" clip-rule="evenodd" d="M7.9999 2.1499C5.59746 2.1499 3.6499 4.09746 3.6499 6.4999C3.6499 8.90234 5.59746 10.8499 7.9999 10.8499C10.4023 10.8499 12.3499 8.90234 12.3499 6.4999C12.3499 4.09746 10.4023 2.1499 7.9999 2.1499ZM5.3499 6.4999C5.3499 5.03635 6.53635 3.8499 7.9999 3.8499C9.46346 3.8499 10.6499 5.03635 10.6499 6.4999C10.6499 7.96346 9.46346 9.1499 7.9999 9.1499C6.53635 9.1499 5.3499 7.96346 5.3499 6.4999Z" fill="#0C0C0C"/>
<path fill-rule="evenodd" clip-rule="evenodd" d="M17.7499 5.1499C15.6236 5.1499 13.8999 6.87361 13.8999 8.9999C13.8999 11.1262 15.6236 12.8499 17.7499 12.8499C19.8762 12.8499 21.5999 11.1262 21.5999 8.9999C21.5999 6.87361 19.8762 5.1499 17.7499 5.1499ZM15.5999 8.9999C15.5999 7.81249 16.5625 6.8499 17.7499 6.8499C18.9373 6.8499 19.8999 7.81249 19.8999 8.9999C19.8999 10.1873 18.9373 11.1499 17.7499 11.1499C16.5625 11.1499 15.5999 10.1873 15.5999 8.9999Z" fill="#0C0C0C"/>
<path fill-rule="evenodd" clip-rule="evenodd" d="M1.5999 21.5999C1.48945 21.5999 1.3999 21.5104 1.3999 21.3999V18.2499C1.3999 14.6048 4.35482 11.6499 7.9999 11.6499C10.6441 11.6499 12.9251 13.2049 13.9784 15.4503C14.8676 14.352 16.2268 13.6499 17.7499 13.6499C20.4285 13.6499 22.5999 15.8213 22.5999 18.4999V21.3999C22.5999 21.5104 22.5104 21.5999 22.3999 21.5999H1.5999ZM17.7499 15.3499C16.011 15.3499 14.6012 16.7589 14.5999 18.4974L14.5999 19.8999H20.8999V18.4999C20.8999 16.7602 19.4896 15.3499 17.7499 15.3499ZM12.8999 19.8999H3.0999V18.2499C3.0999 15.5437 5.29371 13.3499 7.9999 13.3499C10.7061 13.3499 12.8999 15.5437 12.8999 18.2499V19.8999Z" fill="#0C0C0C"/>
</svg>

<svg xmlns="http://www.w3.org/2000/svg" width="24" height="24" fill="none"><path fill="#0C0C0C" fill-rule="evenodd" d="M8 2.15a4.35 4.35 0 1 0 0 8.7 4.35 4.35 0 0 0 0-8.7M5.35 6.5a2.65 2.65 0 1 1 5.3 0 2.65 2.65 0 0 1-5.3 0M17.75 5.15a3.85 3.85 0 1 0 0 7.7 3.85 3.85 0 0 0 0-7.7M15.6 9a2.15 2.15 0 1 1 4.3 0 2.15 2.15 0 0 1-4.3 0" clip-rule="evenodd"/><path fill="#0C0C0C" fill-rule="evenodd" d="M1.6 21.6a.2.2 0 0 1-.2-.2v-3.15a6.6 6.6 0 0 1 12.578-2.8A4.85 4.85 0 0 1 22.6 18.5v2.9a.2.2 0 0 1-.2.2zm16.15-6.25a3.15 3.15 0 0 0-3.15 3.147V19.9h6.3v-1.4a3.15 3.15 0 0 0-3.15-3.15M12.9 19.9H3.1v-1.65a4.9 4.9 0 0 1 9.8 0z" clip-rule="evenodd"/></svg>
